X:154
T:Charles Street Walk
M: C|
L:1/8
B:Thompson's Compleat Collection of 200 Favourite Country Dances, vol. 3 (London, 1773)
Z:Transcribed and edited by Flynn Titford-Mock, 2007
Z:abc's:AK/Fiddler's Companion
K:A
aefe aecA | fgaf "tr"f2e2 | aecA fdBd | ceEG A2-[A,2A2] :|
|: EBGB EcAc | Ecde "tr"c2B2 | aecA fdBd | ceEG A2-[A,2A2] :|

